svg/OSM-icons/amenity #7bffff °373737 !label=enamenities,deEinrichtungen/12126;amenity=post_office;!name=;!post_office=;[addr];[contact];!label=enpost office,dePostamt.svg

<svg xmlns="http://www.w3.org/2000/svg" viewBox="0 0 580 580" enable-background="new 0 0 580 580"><path fill="#111" stroke="#eee" stroke-width="3.408" d="m66.28 1.768c-41.34 0-64.57 21.371-64.57 65.04v450.12c0 40.844 20.895 62.23 62.19 62.23h452.02c41.31 0 62.23-20.315 62.23-62.23v-450.12c0-42.601-20.923-65.04-63.52-65.04-.004 0-448.5-.143-448.35 0z"/><g fill="#fff"><path d="m116.73 154.5v263.6h347.11v-263.6h-347.11m304.47 24.797l-110.91 110.48c-5.514 5.514-12.475 8.27-20.881 8.27-8.699 0-15.951-2.903-21.756-8.708l-110.04-110.04h263.59m-280.11 16.964l90.04 90.48-90.04 90.04v-180.52m16.09 197.48l90.48-90.04 3.916 3.917c10.442 10.15 23.06 15.225 37.844 15.225 14.789 0 27.26-5.074 37.408-15.225l3.915-3.917 90.47 90.04h-264.03m281.43-16.966l-90.04-90.04 90.04-90.48v180.52"/><path d="m478.68 101.32c-50.4-50.4-117.41-78.15-188.68-78.15-71.27 0-138.28 27.755-188.68 78.15-50.4 50.4-78.15 117.41-78.15 188.68s27.755 138.28 78.15 188.68c50.4 50.4 117.4 78.15 188.68 78.15 71.27 0 138.28-27.754 188.68-78.15 50.4-50.4 78.15-117.4 78.15-188.68s-27.755-138.28-78.15-188.68m-188.68 432.04c-134.19 0-243.36-109.17-243.36-243.36s109.17-243.36 243.36-243.36c134.19 0 243.36 109.17 243.36 243.36s-109.17 243.36-243.36 243.36"/></g></svg>

<?xml version="1.0" encoding="utf-8"?>
<!-- Generator: Adobe Illustrator 15.0.0, SVG Export Plug-In . SVG Version: 6.00 Build 0)  -->
<!DOCTYPE svg PUBLIC "-//W3C//DTD SVG 1.1//EN" "http://www.w3.org/Graphics/SVG/1.1/DTD/svg11.dtd">
<svg version="1.1" xmlns="http://www.w3.org/2000/svg" xmlns:xlink="http://www.w3.org/1999/xlink" x="0px" y="0px" width="580px"
	 height="580px" viewBox="0 0 580 580" enable-background="new 0 0 580 580" xml:space="preserve">
<g id="Layer_2">
	<g id="g1327">
		<path id="path1329" fill="#111111" stroke="#EEEEEE" stroke-width="3.408" d="M66.275,1.768
			c-41.335,0-64.571,21.371-64.571,65.036v450.123c0,40.844,20.895,62.229,62.192,62.229H515.92
			c41.307,0,62.229-20.315,62.229-62.229V66.804c0-42.601-20.923-65.036-63.521-65.036C514.624,1.768,66.133,1.625,66.275,1.768z"/>
	</g>
</g>
<g id="Layer_3">
	<g>
		<path fill="#FFFFFF" d="M116.727,154.495v263.6h347.109v-263.6H116.727z M421.198,179.292L310.292,289.773
			c-5.514,5.514-12.475,8.27-20.881,8.27c-8.699,0-15.951-2.903-21.756-8.708L157.611,179.292H421.198z M141.085,196.256
			l90.039,90.477l-90.039,90.039V196.256z M157.173,393.737l90.478-90.04l3.916,3.917c10.442,10.15,23.057,15.225,37.844,15.225
			c14.789,0,27.256-5.074,37.408-15.225l3.915-3.917l90.465,90.04H157.173z M438.602,376.771l-90.04-90.039l90.04-90.477V376.771z"
			/>
		<path fill="#FFFFFF" d="M478.677,101.323C428.278,50.926,361.272,23.171,290,23.171c-71.272,0-138.279,27.755-188.676,78.152
			C50.926,151.721,23.171,218.728,23.171,290s27.755,138.279,78.152,188.677C151.72,529.074,218.727,556.829,290,556.829
			c71.273,0,138.279-27.754,188.677-78.152c50.397-50.397,78.152-117.404,78.152-188.677S529.074,151.721,478.677,101.323z
			 M290,533.363C155.809,533.363,46.638,424.19,46.638,290S155.809,46.638,290,46.638C424.19,46.638,533.363,155.81,533.363,290
			S424.19,533.363,290,533.363z"/>
	</g>
</g>
<g id="Layer_4">
</g>
</svg>
